OK-Plus/Components/Asset Tree Template/Icons/Final Icons/asset_type.svg

<svg xmlns="http://www.w3.org/2000/svg" width="24" height="24">
  <path d="M18.5193388 21.7071132c.1848762.4105154.0019564.8930911-.4087167 1.0779698l-2.0827109.9380881c-.1969404.0890156-.421433.0957-.6235905.0190748-.2023205-.0766252-.3656767-.2303647-.4545282-.4274708l-.9669321-2.1468099c-1.1148005.2421031-2.2718259.2779702-3.4027664.1036886l-.83422552 2.2019148c-.07662419.2023231-.23036167.3656815-.42746518.4545341C9.2121076 23.9760342 9.09782343 24 8.98353926 24c-.09765509 0-.19563624-.0176075-.28872649-.0528225l-2.13618473-.8092925c-.42094398-.1594456-.63288324-.63012-.47343971-1.0510695l.83438858-2.2020778c-.96106304-.6187077-1.80278797-1.4103928-2.47952634-2.3325037l-2.14694473.9671079c-.19710351.0890156-.42127004.0957-.62359052.0190748-.20215745-.0766252-.36567674-.2303647-.45436517-.4274708l-.93823881-2.0827382c-.08885146-.1971061-.09569873-.4214386-.01907454-.6235987.0766242-.2023231.23036168-.3656815.4274652-.4545341l2.14710775-.9671079c-.24209985-1.1177497-.27731437-2.2729968-.10385024-3.4026479L.52651058 9.74591959C.1055666 9.58647396-.10637267 9.1157996.05307087 8.6948501l.80928192-2.1360497c.0766242-.20232314.23036168-.36568154.42746519-.45453416.19726654-.0886896.4215961-.09553695.62359052-.01907479l2.20204894.83439951c.61869961-.9609126 1.4105373-1.8028116 2.33247309-2.47955884l-.96709515-2.14697287c-.18487625-.41051543-.0021194-.89309115.40839065-1.07796982L7.97209989.27683832c.19710351-.08885263.4215961-.09553695.62359052-.01907478.20232048.0766252.36567674.2303647.4545282.42747079l.96693209 2.14680984c1.1149636-.24210303 2.2718259-.27813317 3.4027664-.10368857l.8342256-2.20191477c.0766241-.20232313.2303616-.36568154.4274651-.45453416.1972666-.08885263.4215961-.09553695.6235906-.01907478l2.1360217.80945556c.4209439.15944563.6328832.63011999.4734397 1.05106949l-.8343886 2.2020778c.9609.61870772 1.802788 1.41055579 2.4795263 2.33250367l2.1469448-.96710784c.410184-.18471564.8930794-.00211942 1.0779557.40839601l.9382388 2.08273813c.0888514.1971061.0956987.4214386.0190745.6235987-.0766242.20232313-.2303617.36568153-.4274652.45453416l-2.1469447.96710783c.2420998 1.1179127.2773144 2.2728338.1038502 3.4026479l2.202049.8343996c.2023204.0766252.3656767.2303646.4545282.4274707.0888514.1971061.0956987.4214386.0190745.6235987l-.8092819 2.1362128c-.1594436.4209495-.6299487.6330545-1.0510557.4734459l-2.202049-.8343995c-.6186996.9609126-1.4105373 1.8028116-2.3324731 2.4795588l.9670952 2.1469729zm-1.3508683-7.748764c.523164-1.3805579.4773525-2.8822488-.1291199-4.22840678-.6063093-1.34599499-1.700568-2.37538118-3.0811078-2.89838892-.6309268-.23900541-1.2894058-.36030147-1.9571775-.36030147-2.28291195 0-4.36040581 1.43484761-5.1695247 3.57057127-.52300089 1.3805578-.4771894 2.8822487.12911992 4.2282437.60630932 1.346158 1.70056803 2.3755442 3.08110778 2.8985519.6309269.2390054 1.2894059.3603015 1.9571776.3603015 2.2829119 0 4.3604057-1.4348476 5.1695246-3.5705712z"/>
</svg>

<svg xmlns="http://www.w3.org/2000/svg" width="24" height="24" viewBox="0 0 24 24">
  <path d="M18.5193388,21.7071132 C18.704215,22.1176286 18.5212952,22.6002043 18.1106221,22.785083 L16.0279112,23.7231711 C15.8309708,23.8121867 15.6064782,23.8188711 15.4043207,23.7422459 C15.2020002,23.6656207 15.038644,23.5118812 14.9497925,23.3147751 L13.9828604,21.1679652 C12.8680599,21.4100683 11.7110345,21.4459354 10.580094,21.2716538 L9.74586848,23.4735686 C9.66924429,23.6758917 9.51550681,23.8392501 9.3184033,23.9281027 C9.2121076,23.9760342 9.09782343,24 8.98353926,24 C8.88588417,24 8.78790302,23.9823925 8.69481277,23.9471775 L6.55862804,23.137885 C6.13768406,22.9784394 5.9257448,22.507765 6.08518833,22.0868155 L6.91957691,19.8847377 C5.95851387,19.26603 5.11678894,18.4743449 4.44005057,17.552234 L2.29310584,18.5193419 C2.09600233,18.6083575 1.8718358,18.6150419 1.66951532,18.5384167 C1.46735787,18.4617915 1.30383858,18.308052 1.21515015,18.1109459 L0.276911337,16.0282077 C0.188059877,15.8311016 0.181212609,15.6067691 0.257836803,15.404609 C0.334460998,15.2022859 0.488198479,15.0389275 0.685301992,14.9500749 L2.83240975,13.982967 C2.5903099,12.8652173 2.55509538,11.7099702 2.72855951,10.5803191 L0.526510576,9.74591959 C0.105566595,9.58647396 -0.106372667,9.1157996 0.0530708701,8.6948501 L0.862352792,6.5588004 C0.938976986,6.35647726 1.09271447,6.19311886 1.28981798,6.10426624 C1.48708452,6.01557664 1.71141408,6.00872929 1.9134085,6.08519145 L4.11545744,6.91959096 C4.73415705,5.95867836 5.52599474,5.11677936 6.44793053,4.44003212 L5.48083538,2.29305925 C5.29595913,1.88254382 5.47871598,1.3999681 5.88922603,1.21508943 L7.97209989,0.276838319 C8.1692034,0.187985695 8.39369599,0.181301369 8.59569041,0.257763536 C8.79801089,0.334388735 8.96136715,0.488128231 9.05021861,0.685234328 L10.0171507,2.83204417 C11.1321143,2.58994114 12.2889766,2.553911 13.4199171,2.7283556 L14.2541427,0.52644083 C14.3307668,0.324117698 14.4845043,0.160759294 14.6816078,0.0719066696 C14.8788744,-0.016945955 15.1032039,-0.0236302809 15.3051984,0.052831886 L17.4412201,0.862287448 C17.862164,1.02173308 18.0741033,1.49240744 17.9146598,1.91335694 L17.0802712,4.11543474 C18.0411712,4.73414246 18.8830592,5.52599053 19.5597975,6.44793841 L21.7067423,5.48083057 C22.1169263,5.29611493 22.5998217,5.47871115 22.784698,5.88922658 L23.7229368,7.97196471 C23.8117882,8.16907081 23.8186355,8.39340331 23.7420113,8.59556341 C23.6653871,8.79788654 23.5116496,8.96124494 23.3145461,9.05009757 L21.1676014,10.0172054 C21.4097012,11.1351181 21.4449158,12.2900392 21.2714516,13.4198533 L23.4735006,14.2542529 C23.675821,14.3308781 23.8391773,14.4846175 23.9280288,14.6817236 C24.0168802,14.8788297 24.0237275,15.1031622 23.9471033,15.3053223 L23.1378214,17.4415351 C22.9783778,17.8624846 22.5078727,18.0745896 22.0867657,17.914981 L19.8847167,17.0805815 C19.2660171,18.0414941 18.4741794,18.8833931 17.5522436,19.5601403 L18.5193388,21.7071132 Z M17.1684705,13.9583492 C17.6916345,12.5777913 17.645823,11.0761004 17.0393506,9.72994242 C16.4330413,8.38394743 15.3387826,7.35456124 13.9582428,6.8315535 C13.327316,6.59254809 12.668837,6.47125203 12.0010653,6.47125203 C9.71815335,6.47125203 7.64065949,7.90609964 6.8315406,10.0418233 C6.30853971,11.4223811 6.3543512,12.924072 6.96066052,14.270067 C7.56696984,15.616225 8.66122855,16.6456112 10.0417683,17.1686189 C10.6726952,17.4076243 11.3311742,17.5289204 11.9989459,17.5289204 C14.2818578,17.5289204 16.3593516,16.0940728 17.1684705,13.9583492 Z"/>
</svg>
